X:633
T: Bayue guihua biandikai
N: C2155
O: China,Hubei Hongan
S: I, 405]
R: Xiaodiao, Baduanjin diao]
M: 4/4
L: 1/16
K: Eb
B4B4e4c2B2 | c2B2e2c2B8 |
B3ce2e2c2B2G4 | B2G2F2B2E8 |
B2BcB2G2FGE2F4 | B2BcB2G2FGE2F4 | B3ce4c2B2G4 | B2G2F2B2E8 |
B2BcB2G2FGE2F4 | B2BcB2G2FGE2F4 | B3ce4c2B2G2F2 | B2G2F2B2E8

@@@ Tune index: 7188
